X:339
T: WOHLAN DIE ZEIT IST KOMMEN
N: F0582
O: Europa, Mitteleuropa, Deutschland
R: Soldaten - Lied, Liebe, Scherz
M: 2/4
L: 1/16
K: A
Ac | e2e2e2a2 | e4c2
c2 | d2d2B2B2 | c2c2c2
Ac | e2e2e2a2 | e4c2
c2 | d2d2B2B2 | c2z2
e4 | d2d2B2B2 | c2c2e2
e2 | d2d2B2B2 | c2c2e2
cd | e2e2e2a2 | e4c2
cc | d2d2B2B2 | c4z2

@@@ Tune index: 5770
